assets/Confounded face/Flat/confounded_face_flat.svg

<svg width="32" height="32" viewBox="0 0 32 32" fill="none" xmlns="http://www.w3.org/2000/svg">
<path d="M15.9989 29.9978C25.3333 29.9978 29.9978 23.7303 29.9978 15.9989C29.9978 8.26751 25.3333 2 15.9989 2C6.66443 2 2 8.26751 2 15.9989C2 23.7303 6.66443 29.9978 15.9989 29.9978Z" fill="#FFB02E"/>
<path d="M8.10555 13.5528C8.35254 13.0588 8.95321 12.8586 9.44719 13.1055L13.4472 15.1055C13.786 15.2749 14 15.6212 14 16C14 16.3787 13.786 16.725 13.4472 16.8944L9.44719 18.8944C8.95321 19.1414 8.35254 18.9412 8.10555 18.4472C7.85856 17.9532 8.05878 17.3525 8.55276 17.1055L10.7639 16L8.55276 14.8944C8.05878 14.6474 7.85856 14.0467 8.10555 13.5528Z" fill="#402A32"/>
<path d="M23.8945 13.5528C23.6475 13.0588 23.0468 12.8586 22.5528 13.1055L18.5528 15.1055C18.214 15.2749 18 15.6212 18 16C18 16.3787 18.214 16.725 18.5528 16.8944L22.5528 18.8944C23.0468 19.1414 23.6475 18.9412 23.8945 18.4472C24.1414 17.9532 23.9412 17.3525 23.4472 17.1055L21.2361 16L23.4472 14.8944C23.9412 14.6474 24.1414 14.0467 23.8945 13.5528Z" fill="#402A32"/>
<path d="M13.7071 20.2929C13.3166 19.9024 12.6834 19.9024 12.2929 20.2929L10 22.5858L8.70711 21.2929C8.31658 20.9024 7.68342 20.9024 7.29289 21.2929C6.90237 21.6834 6.90237 22.3166 7.29289 22.7071L9.29289 24.7071C9.68342 25.0976 10.3166 25.0976 10.7071 24.7071L13 22.4142L15.2929 24.7071C15.6834 25.0976 16.3166 25.0976 16.7071 24.7071L19 22.4142L21.2929 24.7071C21.6834 25.0976 22.3166 25.0976 22.7071 24.7071L24.7071 22.7071C25.0976 22.3166 25.0976 21.6834 24.7071 21.2929C24.3166 20.9024 23.6834 20.9024 23.2929 21.2929L22 22.5858L19.7071 20.2929C19.3166 19.9024 18.6834 19.9024 18.2929 20.2929L16 22.5858L13.7071 20.2929Z" fill="#402A32"/>
</svg>

<svg xmlns="http://www.w3.org/2000/svg" width="32" height="32" fill="none"><path fill="#FFB02E" d="M15.999 29.998c9.334 0 13.999-6.268 13.999-14 0-7.73-4.665-13.998-14-13.998C6.665 2 2 8.268 2 15.999c0 7.731 4.664 13.999 13.999 13.999Z"/><path fill="#402A32" d="M8.106 13.553a1 1 0 0 1 1.341-.448l4 2a1 1 0 0 1 0 1.79l-4 2a1 1 0 1 1-.894-1.79L10.763 16l-2.21-1.106a1 1 0 0 1-.447-1.341ZM23.895 13.553a1 1 0 0 0-1.342-.448l-4 2a1 1 0 0 0 0 1.79l4 2a1 1 0 1 0 .894-1.79L21.237 16l2.21-1.106a1 1 0 0 0 .448-1.341ZM13.707 20.293a1 1 0 0 0-1.414 0L10 22.586l-1.293-1.293a1 1 0 0 0-1.414 1.414l2 2a1 1 0 0 0 1.414 0L13 22.414l2.293 2.293a1 1 0 0 0 1.414 0L19 22.414l2.293 2.293a1 1 0 0 0 1.414 0l2-2a1 1 0 0 0-1.414-1.414L22 22.586l-2.293-2.293a1 1 0 0 0-1.414 0L16 22.586l-2.293-2.293Z"/></svg>
